src/pos-icons/baby-carriage-off.svg

<svg height="24" viewBox="0 0 24 24" width="24" xmlns="http://www.w3.org/2000/svg"><path d="m22 10c0-4.4-3.6-8-8-8v8zm-7.8 1h7.8c0 1.8-.6 3.5-1.7 4.9.7.6 1.1 1.5 1.2 2.4zm6.6 11.7 1.3-1.3-19.7-19.7-1.3 1.3 8 8h-1.7l-.9-2h-3.5v2h2.2s1.9 4.1 2.1 4.4c-1 .5-1.7 1.5-1.8 2.6-.3 1.9 1.1 3.7 3 4s3.7-1.1 4-3h2.1c.1.4.2.8.4 1.2.9 1.7 3.1 2.3 4.7 1.4zm-10.3-4.2c0 .8-.7 1.5-1.5 1.5s-1.5-.7-1.5-1.5.7-1.5 1.5-1.5 1.5.7 1.5 1.5m7.6 1.5c-.9 0-1.6-.7-1.6-1.5v-.1z"/></svg>

<?xml version="1.0" encoding="UTF-8"?><!DOCTYPE svg PUBLIC "-//W3C//DTD SVG 1.1//EN" "http://www.w3.org/Graphics/SVG/1.1/DTD/svg11.dtd"><svg xmlns="http://www.w3.org/2000/svg" xmlns:xlink="http://www.w3.org/1999/xlink" version="1.1" id="mdi-baby-carriage-off" width="24" height="24" viewBox="0 0 24 24"><path d="M22 10C22 5.6 18.4 2 14 2V10H22M14.2 11H22C22 12.8 21.4 14.5 20.3 15.9C21 16.5 21.4 17.4 21.5 18.3L14.2 11M20.8 22.7L22.1 21.4L2.4 1.7L1.1 3L9.1 11H7.4L6.5 9H3V11H5.2C5.2 11 7.1 15.1 7.3 15.4C6.3 15.9 5.6 16.9 5.5 18C5.2 19.9 6.6 21.7 8.5 22C10.4 22.3 12.2 20.9 12.5 19H14.6C14.7 19.4 14.8 19.8 15 20.2C15.9 21.9 18.1 22.5 19.7 21.6L20.8 22.7M10.5 18.5C10.5 19.3 9.8 20 9 20S7.5 19.3 7.5 18.5 8.2 17 9 17 10.5 17.7 10.5 18.5M18.1 20C17.2 20 16.5 19.3 16.5 18.5V18.4L18.1 20Z" /></svg>
